icons/1_Primary/Asustor.svg

<svg xmlns="http://www.w3.org/2000/svg" viewBox="0 0 1024 1024">
   <circle cx="512" cy="512" r="512" style="fill:#0052a4"/>
   <path d="M240.3 511.7h-16.9c-3 0-6 1.1-8.9 3.1-2.9 2.1-4.5 4.6-5 7.5l-1.4 8.7c-.6 3.9.6 7.5 3.7 10.6 3 3.2 6.6 4.8 10.6 4.8h11.9l6-34.7zm32.2-18.8-11.9 71.4H208c-8.1 0-15-2.8-20.6-8.5-5.6-5.6-8.5-12.5-8.5-20.6 0-1.2.1-2.6.4-4.3l2.2-13.4c4.3-15.4 13.8-23 28.4-23h33.7c.7-4.4-.4-8.4-3.4-12.1-3-3.7-6.7-5.5-11.2-5.5h-32.2l2.8-16.9h44.1c7.8 0 14.6 2.8 20.3 8.5 5.7 5.6 8.6 12.4 8.6 20.2.1 1.9 0 3.3-.1 4.2m109.9-33.1-3 16.9h-45.8c-8 0-12.7 3.9-14.1 11.8l35.8 21.8c9.4 5.7 14.1 13.9 14.1 24.6 0 9.4-3.5 17-10.4 22.6-5.6 4.5-11.9 6.8-18.7 6.8H278l2.8-17.8h45.8c8.2 0 13.1-4.2 14.6-12.6l-36.3-20.2c-9.3-5.2-13.9-13.2-13.9-23.9 0-8.6 2.7-15.7 8.1-21.3 5.4-5.6 12.4-8.5 20.9-8.5h62.4v-.2zm104.2 0-13.7 80.8c-1.2 6.5-4.6 12.1-10.2 16.7s-11.8 7-18.4 7H416c-8.1 0-15-2.8-20.5-8.2-5.6-5.5-8.3-12.3-8.3-20.4 0-1.6.2-3.3.4-5l11.7-70.8h29L417 529.5c-.2.9-.3 1.7-.3 2.6 0 4.2 1.4 7.6 4.3 10.3 2.9 2.7 6.4 4 10.6 4 7.8 0 12.4-4 13.7-12.1l12-74.5h29.3zm99.8 0-3 16.9H542c-8 0-12.7 3.9-14.1 11.8l35.8 21.8c9.4 5.7 14.1 13.9 14.1 24.6 0 9.4-3.5 17-10.4 22.6-5.6 4.5-11.9 6.8-18.7 6.8h-62.3l2.8-17.8H535c8.2 0 13.1-4.2 14.5-12.6l-36.3-20.2c-9.3-5.2-13.9-13.2-13.9-23.9 0-8.6 2.7-15.7 8.2-21.3 5.4-5.6 12.4-8.5 20.9-8.5h58v-.2zm79.5 0-3 16.9h-29.3l-8.6 52.7c0 .9-.1 1.7-.1 2.6 0 3.9 1.4 7.3 4.4 10.1 2.9 2.8 6.3 4.2 10.2 4.2h11.7l-2.8 17.8h-23.7c-8.1 0-15-2.8-20.5-8.5-5.6-5.6-8.4-12.5-8.4-20.6 0-1.8.2-3.5.4-5.2l14.8-87.7h28.6l-2.9 17.6h29.2v.1zm90.5 8.3c-5.7-5.5-12.5-8.3-20.5-8.3h-28.2c-6.8 0-13 2.1-18.5 6.2-5.5 4.2-8.8 9.6-10 16.3l-7.8 47.5c-.3 1.7-.4 3.5-.4 5.2 0 8.1 2.8 15 8.4 20.6 5.6 5.6 12.4 8.5 20.5 8.5h27.8c6.9 0 13.2-2.4 18.8-7.2 5.6-4.8 8.9-10.6 10.1-17.4l8-46.2c.3-1.6.5-3.3.5-5.2-.1-7.8-3-14.5-8.7-20zm-12.3 25.2-6.9 40.6c-1.4 8.4-6.3 12.6-14.4 12.6-4.1 0-7.5-1.3-10.3-3.9-2.8-2.6-3.8-5.8-3.8-9.9 0-.9.3-3 .3-3l6.7-40.6c1.3-8 5.8-12 13.4-12 4.5 0 10.3.7 13.5 3.8 3.1 3.2 2.2 7.9 1.5 12.4zm101-33.5-2.9 16.9h-17c-8.3 0-13.1 4.1-14.4 12.3L799 564.3h-28.8l13.2-81.4c1-6.7 4.3-12.3 9.9-16.6 5.6-4.3 11.8-6.5 18.6-6.5h33.2z" style="fill:#fff"/>
</svg>

<svg width="1024" height="1024" viewBox="0 0 1024 1024" fill="none" xmlns="http://www.w3.org/2000/svg">
<g clip-path="url(#clip0_2_1518)">
<path d="M512 1024C794.77 1024 1024 794.77 1024 512C1024 229.23 794.77 0 512 0C229.23 0 0 229.23 0 512C0 794.77 229.23 1024 512 1024Z" fill="#728DBE"/>
<path d="M240.3 511.7H223.4C220.4 511.7 217.4 512.8 214.5 514.8C211.6 516.9 210 519.4 209.5 522.3L208.1 531C207.5 534.9 208.7 538.5 211.8 541.6C214.8 544.8 218.4 546.4 222.4 546.4H234.3L240.3 511.7ZM272.5 492.9L260.6 564.3H208C199.9 564.3 193 561.5 187.4 555.8C181.8 550.2 178.9 543.3 178.9 535.2C178.9 534 179 532.6 179.3 530.9L181.5 517.5C185.8 502.1 195.3 494.5 209.9 494.5H243.6C244.3 490.1 243.2 486.1 240.2 482.4C237.2 478.7 233.5 476.9 229 476.9H196.8L199.6 460H243.7C251.5 460 258.3 462.8 264 468.5C269.7 474.1 272.6 480.9 272.6 488.7C272.7 490.6 272.6 492 272.5 492.9ZM382.4 459.8L379.4 476.7H333.6C325.6 476.7 320.9 480.6 319.5 488.5L355.3 510.3C364.7 516 369.4 524.2 369.4 534.9C369.4 544.3 365.9 551.9 359 557.5C353.4 562 347.1 564.3 340.3 564.3H278L280.8 546.5H326.6C334.8 546.5 339.7 542.3 341.2 533.9L304.9 513.7C295.6 508.5 291 500.5 291 489.8C291 481.2 293.7 474.1 299.1 468.5C304.5 462.9 311.5 460 320 460H382.4V459.8ZM486.6 459.8L472.9 540.6C471.7 547.1 468.3 552.7 462.7 557.3C457.1 561.9 450.9 564.3 444.3 564.3H416C407.9 564.3 401 561.5 395.5 556.1C389.9 550.6 387.2 543.8 387.2 535.7C387.2 534.1 387.4 532.4 387.6 530.7L399.3 459.9H428.3L417 529.5C416.8 530.4 416.7 531.2 416.7 532.1C416.7 536.3 418.1 539.7 421 542.4C423.9 545.1 427.4 546.4 431.6 546.4C439.4 546.4 444 542.4 445.3 534.3L457.3 459.8H486.6ZM586.4 459.8L583.4 476.7H542C534 476.7 529.3 480.6 527.9 488.5L563.7 510.3C573.1 516 577.8 524.2 577.8 534.9C577.8 544.3 574.3 551.9 567.4 557.5C561.8 562 555.5 564.3 548.7 564.3H486.4L489.2 546.5H535C543.2 546.5 548.1 542.3 549.5 533.9L513.2 513.7C503.9 508.5 499.3 500.5 499.3 489.8C499.3 481.2 502 474.1 507.5 468.5C512.9 462.9 519.9 460 528.4 460H586.4V459.8ZM665.9 459.8L662.9 476.7H633.6L625 529.4C625 530.3 624.9 531.1 624.9 532C624.9 535.9 626.3 539.3 629.3 542.1C632.2 544.9 635.6 546.3 639.5 546.3H651.2L648.4 564.1H624.7C616.6 564.1 609.7 561.3 604.2 555.6C598.6 550 595.8 543.1 595.8 535C595.8 533.2 596 531.5 596.2 529.8L611 442.1H639.6L636.7 459.7H665.9V459.8ZM756.4 468.1C750.7 462.6 743.9 459.8 735.9 459.8H707.7C700.9 459.8 694.7 461.9 689.2 466C683.7 470.2 680.4 475.6 679.2 482.3L671.4 529.8C671.1 531.5 671 533.3 671 535C671 543.1 673.8 550 679.4 555.6C685 561.2 691.8 564.1 699.9 564.1H727.7C734.6 564.1 740.9 561.7 746.5 556.9C752.1 552.1 755.4 546.3 756.6 539.5L764.6 493.3C764.9 491.7 765.1 490 765.1 488.1C765 480.3 762.1 473.6 756.4 468.1ZM744.1 493.3L737.2 533.9C735.8 542.3 730.9 546.5 722.8 546.5C718.7 546.5 715.3 545.2 712.5 542.6C709.7 540 708.7 536.8 708.7 532.7C708.7 531.8 709 529.7 709 529.7L715.7 489.1C717 481.1 721.5 477.1 729.1 477.1C733.6 477.1 739.4 477.8 742.6 480.9C745.7 484.1 744.8 488.8 744.1 493.3ZM845.1 459.8L842.2 476.7H825.2C816.9 476.7 812.1 480.8 810.8 489L799 564.3H770.2L783.4 482.9C784.4 476.2 787.7 470.6 793.3 466.3C798.9 462 805.1 459.8 811.9 459.8H845.1Z" fill="white"/>
</g>
<defs>
<clipPath id="clip0_2_1518">
<rect width="1024" height="1024" fill="white"/>
</clipPath>
</defs>
</svg>
